assets/gcpautomlvideointelligence/original.svg

<svg height="24" width="24" xmlns="http://www.w3.org/2000/svg"><path d="m6.83 19.46 1 1.65h9.48l4.69-8.22-1.9-3.29-4.74 8.21h-7.58zm10.34-14.92-1-1.65h-9.43l-4.74 8.22 1.9 3.29 4.75-8.21h7.58z" fill="#4285f4"/><path d="m15.47 9.99-1.33.99v2.08l1.33 1z" fill="#669df6"/><path d="m10.79 12.3-.38.69h-.91l.57-.98-.57-1h.91l.38.64h2.5v-2.03h-2.03l.43.68h.75v.74h-1.22l-.91-1.42h-1.78v4.76h1.78l.91-1.42h1.22v.74h-.75l-.43.68h2.03v-2.08z" fill="#aecbfa"/></svg>

<svg xmlns="http://www.w3.org/2000/svg" width="24" height="24"><path fill="#4285f4" d="m6.83 19.46 1 1.65h9.48L22 12.89 20.1 9.6l-4.74 8.21H7.78zM17.17 4.54l-1-1.65H6.74L2 11.11l1.9 3.29 4.75-8.21h7.58z"/><path fill="#669df6" d="m15.47 9.99-1.33.99v2.08l1.33 1z"/><path fill="#aecbfa" d="m10.79 12.3-.38.69H9.5l.57-.98-.57-1h.91l.38.64h2.5V9.62h-2.03l.43.68h.75v.74h-1.22l-.91-1.42H8.53v4.76h1.78l.91-1.42h1.22v.74h-.75l-.43.68h2.03V12.3z"/></svg>
